source/img/icons/logo.svg

<svg width="192" height="83" viewBox="0 0 192 83" fill="none" xmlns="http://www.w3.org/2000/svg">
<g clip-path="url(#clip0)">
<path d="M93.0928 38.9032H104.999V43.5467H83.901L96.9022 26.4721H86.6622V21.8286H105.998L93.0928 38.9032Z" fill="black"/>
<path d="M126.819 38.5934C125.961 40.2445 124.723 41.688 123.437 42.5646C121.818 43.7 119.675 44.2157 117.531 44.2157C114.864 44.2157 112.674 43.494 110.769 41.4309C108.864 39.3679 107.816 36.3755 107.816 33.126C107.816 29.7727 108.912 26.5232 111.006 24.2014C112.674 22.3971 114.863 21.2617 117.721 21.2617C120.912 21.2617 122.959 22.7579 124.151 24.0993C126.723 26.9879 126.96 31.0118 126.96 33.2809V33.9004H112.578C112.672 35.4477 113.291 37.2027 114.291 38.2853C115.386 39.4717 116.72 39.6777 117.863 39.6777C119.15 39.6777 120.101 39.3679 121.055 38.5951C121.864 37.9244 122.483 37.0478 122.912 36.2222L126.819 38.5934ZM122.199 29.7727C122.009 28.5862 121.484 27.5547 120.77 26.833C120.151 26.215 119.152 25.5955 117.627 25.5955C116.007 25.5955 114.96 26.3172 114.341 26.9879C113.675 27.6585 113.15 28.6901 112.913 29.7743H122.199V29.7727Z" fill="black"/>
<path d="M136.493 24.3563C138.398 21.6737 140.97 21.2601 142.446 21.2601C147.733 21.2601 152.208 25.5938 152.208 32.6596C152.208 38.6445 148.685 44.2141 142.493 44.2141C141.065 44.2141 138.541 43.8532 136.492 41.2744V43.5451H131.824V5.94037H136.492V24.3563H136.493ZM136.207 32.8178C136.207 37.3575 138.921 39.6777 141.874 39.6777C145.256 39.6777 147.447 36.5303 147.447 32.7651C147.447 28.896 145.256 25.8014 141.874 25.8014C138.921 25.8014 136.207 28.0705 136.207 32.8178Z" fill="black"/>
<path d="M157.075 21.8286H161.743V23.7895C162.266 23.1188 163.028 22.3954 163.694 21.9835C164.6 21.4166 165.505 21.2601 166.553 21.2601C167.696 21.2601 168.934 21.466 170.219 22.2932L168.315 26.8841C167.267 26.1623 166.41 26.1096 165.934 26.1096C164.934 26.1096 163.933 26.2645 163.028 27.296C161.743 28.7906 161.743 30.8553 161.743 32.2988V43.5451H157.075V21.8286Z" fill="black"/>
<path d="M186.558 21.8286H191.226V43.5467H186.558V41.276C184.511 43.8549 181.987 44.2157 180.557 44.2157C174.366 44.2157 170.842 38.6461 170.842 32.6613C170.842 25.5955 175.317 21.2617 180.604 21.2617C182.08 21.2617 184.652 21.6753 186.557 24.358V21.8286H186.558ZM175.605 32.7651C175.605 36.5303 177.796 39.6777 181.177 39.6777C184.129 39.6777 186.844 37.3575 186.844 32.8178C186.844 28.0705 184.13 25.8014 181.177 25.8014C177.796 25.8014 175.605 28.896 175.605 32.7651Z" fill="black"/>
<path d="M70.6264 43.9801C70.6264 50.2877 65.9161 55.3312 60.1912 55.3312H42.3865L70.6264 16.8255V43.9801Z" fill="#003883" stroke="black"/>
<path d="M21.5264 0.5L11.514 14.2376L10.9349 15.0321H11.918H48.5145L0.5 80.3747V43.9801V30.0017V11.8445C0.5 5.54393 5.21148 0.5 10.9414 0.5H21.5264Z" fill="#003883" stroke="black"/>
</g>
<defs>
<clipPath id="clip0">
<rect width="191.226" height="81.8995" fill="white" transform="translate(0 0.164368)"/>
</clipPath>
</defs>
</svg>

<svg width="192" height="83" fill="none" xmlns="http://www.w3.org/2000/svg"><g clip-path="url(#clip0)"><path d="M93.093 38.903h11.906v4.644H83.901l13.001-17.075h-10.24V21.83h19.336L93.093 38.903zm33.726-.31c-.858 1.651-2.096 3.095-3.382 3.972-1.619 1.135-3.762 1.65-5.906 1.65-2.667 0-4.857-.721-6.762-2.784-1.905-2.063-2.953-5.055-2.953-8.305 0-3.353 1.096-6.603 3.19-8.925 1.668-1.804 3.857-2.94 6.715-2.94 3.191 0 5.238 1.497 6.43 2.838 2.572 2.889 2.809 6.913 2.809 9.182v.62h-14.382c.094 1.547.713 3.302 1.713 4.384 1.095 1.187 2.429 1.393 3.572 1.393 1.287 0 2.238-.31 3.192-1.083.809-.67 1.428-1.547 1.857-2.373l3.907 2.371zm-4.62-8.82c-.19-1.187-.715-2.218-1.429-2.94-.619-.618-1.618-1.237-3.143-1.237-1.62 0-2.667.721-3.286 1.392-.666.67-1.191 1.702-1.428 2.786h9.286v-.001zm14.294-5.417c1.905-2.682 4.477-3.096 5.953-3.096 5.287 0 9.762 4.334 9.762 11.4 0 5.985-3.523 11.554-9.715 11.554-1.428 0-3.952-.36-6.001-2.94v2.271h-4.668V5.94h4.668v18.416h.001zm-.286 8.462c0 4.54 2.714 6.86 5.667 6.86 3.382 0 5.573-3.148 5.573-6.913 0-3.869-2.191-6.964-5.573-6.964-2.953 0-5.667 2.27-5.667 7.017zm20.868-10.989h4.668v1.96c.523-.67 1.285-1.394 1.951-1.806.906-.566 1.811-.723 2.859-.723 1.143 0 2.381.206 3.666 1.033l-1.904 4.591c-1.048-.722-1.905-.774-2.381-.774-1 0-2.001.155-2.906 1.186-1.285 1.495-1.285 3.56-1.285 5.003v11.246h-4.668V21.83zm29.483 0h4.668v21.718h-4.668v-2.271c-2.047 2.579-4.571 2.94-6.001 2.94-6.191 0-9.715-5.57-9.715-11.555 0-7.066 4.475-11.4 9.762-11.4 1.476 0 4.048.414 5.953 3.097v-2.53h.001zm-10.953 10.936c0 3.765 2.191 6.913 5.572 6.913 2.952 0 5.667-2.32 5.667-6.86 0-4.747-2.714-7.017-5.667-7.017-3.381 0-5.572 3.095-5.572 6.964z" fill="#000"/><path d="M70.626 43.98c0 6.308-4.71 11.351-10.435 11.351H42.386l28.24-38.506V43.98zM21.526.5L11.514 14.238l-.58.794h37.58L.5 80.375v-68.53C.5 5.543 5.211.5 10.941.5h10.585z" fill="#003883" stroke="#000"/></g><defs><clipPath id="clip0"><path fill="#fff" transform="translate(0 .164)" d="M0 0h191.226v81.9H0z"/></clipPath></defs></svg>
